server/website/public/icons/base/web.svg

<svg width="48" height="48" viewBox="0 0 48 48" fill="none" xmlns="http://www.w3.org/2000/svg">
<g clip-path="url(#clip0_1395_21578)">
<path d="M34.464 28.8C34.656 27.216 34.8 25.632 34.8 24C34.8 22.368 34.656 20.784 34.464 19.2H42.576C42.96 20.736 43.2 22.344 43.2 24C43.2 25.656 42.96 27.264 42.576 28.8M30.216 42.144C31.656 39.48 32.76 36.6 33.528 33.6H40.608C38.2828 37.6039 34.5939 40.6368 30.216 42.144ZM29.616 28.8H18.384C18.144 27.216 18 25.632 18 24C18 22.368 18.144 20.76 18.384 19.2H29.616C29.832 20.76 30 22.368 30 24C30 25.632 29.832 27.216 29.616 28.8ZM24 43.104C22.008 40.224 20.4 37.032 19.416 33.6H28.584C27.6 37.032 25.992 40.224 24 43.104ZM14.4 14.4H7.392C9.69274 10.3849 13.3792 7.34698 17.76 5.856C16.32 8.52 15.24 11.4 14.4 14.4ZM7.392 33.6H14.4C15.24 36.6 16.32 39.48 17.76 42.144C13.3878 40.6375 9.70629 37.6037 7.392 33.6ZM5.424 28.8C5.04 27.264 4.8 25.656 4.8 24C4.8 22.344 5.04 20.736 5.424 19.2H13.536C13.344 20.784 13.2 22.368 13.2 24C13.2 25.632 13.344 27.216 13.536 28.8M24 4.872C25.992 7.752 27.6 10.968 28.584 14.4H19.416C20.4 10.968 22.008 7.752 24 4.872ZM40.608 14.4H33.528C32.7757 11.4279 31.6635 8.55865 30.216 5.856C34.632 7.368 38.304 10.416 40.608 14.4ZM24 0C10.728 0 0 10.8 0 24C0 30.3652 2.52856 36.4697 7.02944 40.9706C9.25804 43.1992 11.9038 44.967 14.8156 46.1731C17.7274 47.3792 20.8483 48 24 48C30.3652 48 36.4697 45.4714 40.9706 40.9706C45.4714 36.4697 48 30.3652 48 24C48 20.8483 47.3792 17.7274 46.1731 14.8156C44.967 11.9038 43.1992 9.25804 40.9706 7.02944C38.742 4.80083 36.0962 3.033 33.1844 1.82689C30.2726 0.620778 27.1517 0 24 0Z" fill="black"/>
</g>
<defs>
<clipPath id="clip0_1395_21578">
<rect width="48" height="48" fill="white"/>
</clipPath>
</defs>
</svg>

<svg width="48" height="48" fill="none" xmlns="http://www.w3.org/2000/svg"><g clip-path="url(#prefix__clip0_1395_21578)"><path d="M34.464 28.8c.192-1.584.336-3.168.336-4.8 0-1.632-.144-3.216-.336-4.8h8.112c.384 1.536.624 3.144.624 4.8 0 1.656-.24 3.264-.624 4.8m-12.36 13.344c1.44-2.664 2.544-5.544 3.312-8.544h7.08a19.272 19.272 0 01-10.392 8.544zm-.6-13.344H18.384A31.844 31.844 0 0118 24c0-1.632.144-3.24.384-4.8h11.232c.216 1.56.384 3.168.384 4.8 0 1.632-.168 3.216-.384 4.8zM24 43.104c-1.992-2.88-3.6-6.072-4.584-9.504h9.168c-.984 3.432-2.592 6.624-4.584 9.504zM14.4 14.4H7.392A19.008 19.008 0 0117.76 5.856C16.32 8.52 15.24 11.4 14.4 14.4zM7.392 33.6H14.4c.84 3 1.92 5.88 3.36 8.544A19.2 19.2 0 017.392 33.6zm-1.968-4.8C5.04 27.264 4.8 25.656 4.8 24c0-1.656.24-3.264.624-4.8h8.112c-.192 1.584-.336 3.168-.336 4.8 0 1.632.144 3.216.336 4.8M24 4.872c1.992 2.88 3.6 6.096 4.584 9.528h-9.168C20.4 10.968 22.008 7.752 24 4.872zM40.608 14.4h-7.08a37.68 37.68 0 00-3.312-8.544A19.168 19.168 0 0140.608 14.4zM24 0C10.728 0 0 10.8 0 24A24 24 0 1024 0z" fill="#000"/></g><defs><clipPath id="prefix__clip0_1395_21578"><path fill="#fff" d="M0 0h48v48H0z"/></clipPath></defs></svg>
